!!!OTL: Zenizenabo
!!!XEN: Bring Them with You or Be Victorious
!!!CNT: African -- sub-Saharan -- Xhosa
!!!ONB: This is not true monody. In the source it is harmonized by two other vocal lines.
**kern
*k[f#]
*M4/4
*MM80
[8a
8a]
16b
16d
=1
2.d
4e
=2
8.B
16A
8A
8d
(8e
8d)
(8e
8d)
=3
8.B
16A
8.A
16A
16G
16G
8r
8a
16b
16d
=4
2.d
4e
!! page 32
=5
8.B
16A
8A
8d
(8e
8d)
(8e
8d)
=6
8.B
16A
8.A
16A
16G
16G
8r
8a
16b
16d
!! Repeated section.
=7
2.d
4g
=8
8.B
16A
8A
8d
(8e
8d)
(8e
8d)
=9
8.B
16A
8.A
16A
16G
16G
8r
(16b
16g)
16a
16d
=10
2.d
4g
=11
8.B
16A
8A
8d
(8e
8d)
(8e
8d)
=12
8.B
16A
8.A
16A
16G
16G
8r
(16b
16g)
16a
16d
=13
2.d
4g
=14
8.B
16A
8A
8d
(8e
8d)
(8e
8d)
=15
8.B
16A
8.A
16A
16G
16G
8r
(16b
16g)
16a
16d
=16
2.d
4g
=17
8.B
16A
8A
8d
(8e
8d)
(8e
8d)
=18
8.B
16A
8.A
16A
16G
16G
8r
(16b
16g)
16a
16d
!! page 33
=19
2.d
4g
=20
8.B
16A
8A
8d
(8e
8d)
(8e
8d)
=21
8.B
16A
8.A
16A
16G
16G
8r
8a
16b
16d
=22
2.d
4g
=23
8.B
16A
8A
8d
(8e
8d)
(8e
8d)
=24
8.B
16A
8.A
16A
16G
(16G
[8g
4g)]
==
*-
!!!OPR: Miriam Makeba, "The World of African Song"
!!!PPP: Chicago
!!!PPR: Quadrangle Press (12 East Delaware Place)
!!!PDT: 1971///
!!!PPG: 31-33
!!!ENC: David Huron
!!!EMD: 1998/9/29/ Paul von Hippel updated this file in the following ways:
!!!EMD:  (1) changed the representation of slurs from curly braces to parentheses 
!!!EMD:  (2) changed freeform comments into reference records and tandem interpretations
!!!EMD:  (3) changed final barline from triple (===) to double (==)
!!!EMD:  (4) added key signature from printed source
!!!EEV: Version 2.0
